Newaita-dark/devices/48/media-floppy.svg

<svg height="48pt" viewBox="0 0 48 48" width="48pt" xmlns="http://www.w3.org/2000/svg" xmlns:xlink="http://www.w3.org/1999/xlink"><linearGradient id="a" gradientUnits="userSpaceOnUse" x1="18.853367" x2="18.853367" y1="42.0509045" y2="44.03547050005"><stop offset="0" stop-opacity=".27451"/><stop offset="1" stop-opacity="0"/></linearGradient><linearGradient id="b"><stop offset="0" stop-opacity=".313725"/><stop offset=".222222" stop-opacity=".27451"/><stop offset="1" stop-opacity="0"/></linearGradient><radialGradient id="c" cx="450.908936" cy="189.579361" gradientTransform="matrix(.00000026 -.117199 -.210958 -.00000015 77.203688 95.392999)" gradientUnits="userSpaceOnUse" r="21.166656" xlink:href="#b"/><radialGradient id="d" cx="450.908936" cy="189.579361" gradientTransform="matrix(-.00000026 .117199 .210958 .00000015 -29.57414 -11.291218)" gradientUnits="userSpaceOnUse" r="21.166656" xlink:href="#b"/><radialGradient id="e" cx="450.908936" cy="189.579361" gradientTransform="matrix(-.00000026 -.117199 .210958 -.00000015 -29.57414 95.392999)" gradientUnits="userSpaceOnUse" r="21.166656" xlink:href="#b"/><radialGradient id="f" cx="450.908936" cy="189.579361" gradientTransform="matrix(.00000026 .117199 -.210958 .00000015 77.203685 -11.291219)" gradientUnits="userSpaceOnUse" r="21.166656" xlink:href="#b"/><linearGradient id="g" gradientUnits="userSpaceOnUse" x1="24.8070697501" x2="24.8070697501" y1="42.0509015" y2="6.3287225"><stop offset="0" stop-color="#424242"/><stop offset="1" stop-color="#616161"/></linearGradient><linearGradient id="h" gradientUnits="userSpaceOnUse" x1="25.799384" x2="25.799384" y1="42.05096580616" y2="6.32874066504"><stop offset="0" stop-color="#9e9e9e"/><stop offset="1" stop-color="#e0e0e0"/></linearGradient><linearGradient id="i" gradientUnits="userSpaceOnUse" x1="960" x2="960" y1="935.118103" y2="1695.118164"><stop offset="0" stop-color="#e0e0e0"/><stop offset="1" stop-color="#eee"/></linearGradient><path d="m9.921875 42.050781h27.785156v1.984375h-27.785156zm0 0" fill="url(#a)"/><path d="m37.707031 42.050781h3.96875v-1.984375h-3.96875zm0 0" fill="url(#c)"/><path d="m9.921875 42.050781h-3.96875v1.984375h3.96875zm0 0" fill="url(#d)"/><path d="m9.921875 42.050781h-3.96875v-1.984375h3.96875zm0 0" fill="url(#e)"/><path d="m37.707031 42.050781h3.96875v1.984375h-3.96875zm0 0" fill="url(#f)"/><path d="m7.9375 6.328125h31.753906c1.097656 0 1.984375.890625 1.984375 1.984375v31.753906c0 1.097656-.886719 1.984375-1.984375 1.984375h-31.753906c-1.09375 0-1.984375-.886719-1.984375-1.984375v-31.753906c0-1.09375.890625-1.984375 1.984375-1.984375zm0 0" fill="url(#g)"/><path d="m13.890625 6.328125v11.90625c0 1.101563.886719 1.984375 1.984375 1.984375h19.847656c1.097656 0 1.984375-.882812 1.984375-1.984375v-11.90625zm15.878906 1.984375h3.96875c.550781 0 .992188.441406.992188.992188v5.953124c0 .550782-.441407.992188-.992188.992188h-3.96875c-.550781 0-.992187-.441406-.992187-.992188v-5.953124c0-.550782.441406-.992188.992187-.992188zm0 0" fill="url(#h)"/><path d="m439.958009 935.186334c-44.247745 0-79.992365 35.587155-79.992365 79.992365v679.935105h1200.042945v-679.935105c0-44.40521-35.74462-79.992365-79.992365-79.992365zm0 0" fill="url(#i)" stroke="#212121" stroke-linecap="round" stroke-linejoin="round" stroke-width="11.338583" transform="scale(.0248071)"/><path d="m95.240905 170.004901h317.511346v63.493936h-317.511346zm0 0" fill="#ef5350" stroke="#212121" stroke-linecap="round" stroke-linejoin="round" stroke-width="3" transform="matrix(.093759 0 0 .093759 0 20.158175)"/><path d="m7.9375 42.050781c-1.097656 0-1.984375-.886719-1.984375-1.984375v-.496094c0 1.097657.886719 1.984376 1.984375 1.984376h31.753906c1.097656 0 1.984375-.886719 1.984375-1.984376v.496094c0 1.097656-.886719 1.984375-1.984375 1.984375zm0 0" fill-opacity=".235294"/><path d="m29.769531 7.847656c-.550781 0-.992187.441406-.992187.992188v.464844c0-.550782.441406-.992188.992187-.992188h3.96875c.550781 0 .992188.441406.992188.992188v-.464844c0-.550782-.441407-.992188-.992188-.992188zm-15.878906 9.921875v.464844c0 1.101563.886719 1.984375 1.984375 1.984375h19.847656c1.097656 0 1.984375-.882812 1.984375-1.984375v-.464844c0 1.097657-.886719 1.984375-1.984375 1.984375h-19.847656c-1.097656 0-1.984375-.886718-1.984375-1.984375zm0 0" fill="#0c0c0c" fill-opacity=".313725"/><path d="m13.890625 6.328125v.496094h23.816406v-.496094zm14.886719 8.929687v.496094c0 .550782.441406.992188.992187.992188h3.96875c.550781 0 .992188-.441406.992188-.992188v-.496094c0 .550782-.441407.992188-.992188.992188h-3.96875c-.550781 0-.992187-.441406-.992187-.992188zm0 0" fill="#fff" fill-opacity=".392157"/><path d="m13.890625 6.1875c-.078125 0-.140625.0625-.140625.140625v11.90625c0 1.175781.953125 2.125 2.125 2.125h19.847656c1.175782 0 2.125-.949219 2.125-2.125v-11.90625c0-.078125-.0625-.140625-.140625-.140625zm.140625.28125h23.535156v11.765625c0 1.027344-.820312 1.84375-1.84375 1.84375h-19.847656c-1.023438 0-1.84375-.816406-1.84375-1.84375zm15.738281 1.703125c-.625 0-1.132812.507813-1.132812 1.132813v5.953124c0 .625.507812 1.132813 1.132812 1.132813h3.96875c.625 0 1.132813-.507813 1.132813-1.132813v-5.953124c0-.625-.507813-1.132813-1.132813-1.132813zm0 .28125h3.96875c.472657 0 .851563.378906.851563.851563v5.953124c0 .476563-.378906.851563-.851563.851563h-3.96875c-.476562 0-.851562-.375-.851562-.851563v-5.953124c0-.472657.375-.851563.851562-.851563zm0 0" fill="#212121"/><path d="m7.9375 6.328125c-1.097656 0-1.984375.886719-1.984375 1.984375v.496094c0-1.097656.886719-1.984375 1.984375-1.984375h31.753906c1.097656 0 1.984375.886719 1.984375 1.984375v-.496094c0-1.097656-.886719-1.984375-1.984375-1.984375zm0 0" fill="#fff" fill-opacity=".313725"/><path d="m7.9375 6.1875c-1.175781 0-2.125.949219-2.125 2.125v31.753906c0 1.175782.949219 2.125 2.125 2.125h31.753906c1.175782 0 2.125-.949218 2.125-2.125v-31.753906c0-1.175781-.949218-2.125-2.125-2.125zm0 .28125h31.753906c1.023438 0 1.84375.820312 1.84375 1.84375v31.753906c0 1.023438-.820312 1.84375-1.84375 1.84375h-31.753906c-1.023438 0-1.84375-.820312-1.84375-1.84375v-31.753906c0-1.023438.820312-1.84375 1.84375-1.84375zm0 0" fill="#212121"/></svg>

<?xml version="1.0" encoding="UTF-8"?>
<svg xmlns="http://www.w3.org/2000/svg" xmlns:xlink="http://www.w3.org/1999/xlink" width="48pt" height="48pt" viewBox="0 0 48 48" version="1.1">
<defs>
<linearGradient id="linear0" gradientUnits="userSpaceOnUse" x1="254" y1="233.5" x2="254" y2="254.666672" gradientTransform="matrix(0.093759,0,0,0.093759,-4.961419,20.158178)">
<stop offset="0" style="stop-color:rgb(0%,0%,0%);stop-opacity:0.27451;"/>
<stop offset="1" style="stop-color:rgb(0%,0%,0%);stop-opacity:0;"/>
</linearGradient>
<radialGradient id="radial0" gradientUnits="userSpaceOnUse" cx="450.908936" cy="189.579361" fx="450.908936" fy="189.579361" r="21.166656" gradientTransform="matrix(0.000000261256,-0.117199,-0.210958,-0.000000152308,77.203688,95.392999)">
<stop offset="0" style="stop-color:rgb(0%,0%,0%);stop-opacity:0.313725;"/>
<stop offset="0.222222" style="stop-color:rgb(0%,0%,0%);stop-opacity:0.27451;"/>
<stop offset="1" style="stop-color:rgb(0%,0%,0%);stop-opacity:0;"/>
</radialGradient>
<radialGradient id="radial1" gradientUnits="userSpaceOnUse" cx="450.908936" cy="189.579361" fx="450.908936" fy="189.579361" r="21.166656" gradientTransform="matrix(-0.000000261256,0.117199,0.210958,0.000000152308,-29.57414,-11.291218)">
<stop offset="0" style="stop-color:rgb(0%,0%,0%);stop-opacity:0.313725;"/>
<stop offset="0.222222" style="stop-color:rgb(0%,0%,0%);stop-opacity:0.27451;"/>
<stop offset="1" style="stop-color:rgb(0%,0%,0%);stop-opacity:0;"/>
</radialGradient>
<radialGradient id="radial2" gradientUnits="userSpaceOnUse" cx="450.908936" cy="189.579361" fx="450.908936" fy="189.579361" r="21.166656" gradientTransform="matrix(-0.000000261256,-0.117199,0.210958,-0.000000152308,-29.57414,95.392999)">
<stop offset="0" style="stop-color:rgb(0%,0%,0%);stop-opacity:0.313725;"/>
<stop offset="0.222222" style="stop-color:rgb(0%,0%,0%);stop-opacity:0.27451;"/>
<stop offset="1" style="stop-color:rgb(0%,0%,0%);stop-opacity:0;"/>
</radialGradient>
<radialGradient id="radial3" gradientUnits="userSpaceOnUse" cx="450.908936" cy="189.579361" fx="450.908936" fy="189.579361" r="21.166656" gradientTransform="matrix(0.000000261256,0.117199,-0.210958,0.000000152308,77.203685,-11.291219)">
<stop offset="0" style="stop-color:rgb(0%,0%,0%);stop-opacity:0.313725;"/>
<stop offset="0.222222" style="stop-color:rgb(0%,0%,0%);stop-opacity:0.27451;"/>
<stop offset="1" style="stop-color:rgb(0%,0%,0%);stop-opacity:0;"/>
</radialGradient>
<linearGradient id="linear1" gradientUnits="userSpaceOnUse" x1="264.583344" y1="233.5" x2="264.583344" y2="-147.5" gradientTransform="matrix(0.093759,0,0,0.093759,0,20.158175)">
<stop offset="0" style="stop-color:rgb(25.882353%,25.882353%,25.882353%);stop-opacity:1;"/>
<stop offset="1" style="stop-color:rgb(38.039216%,38.039216%,38.039216%);stop-opacity:1;"/>
</linearGradient>
<linearGradient id="linear2" gradientUnits="userSpaceOnUse" x1="1040" y1="1695.118164" x2="1040" y2="255.118118" gradientTransform="matrix(0.0248071,0,0,0.0248071,0,0)">
<stop offset="0" style="stop-color:rgb(61.960784%,61.960784%,61.960784%);stop-opacity:1;"/>
<stop offset="1" style="stop-color:rgb(87.843137%,87.843137%,87.843137%);stop-opacity:1;"/>
</linearGradient>
<linearGradient id="linear3" gradientUnits="userSpaceOnUse" x1="960" y1="935.118103" x2="960" y2="1695.118164" gradientTransform="matrix(1,0,0,1,0,0)">
<stop offset="0" style="stop-color:rgb(87.843137%,87.843137%,87.843137%);stop-opacity:1;"/>
<stop offset="1" style="stop-color:rgb(93.333333%,93.333333%,93.333333%);stop-opacity:1;"/>
</linearGradient>
</defs>
<g id="surface1">
<path style=" stroke:none;fill-rule:nonzero;fill:url(#linear0);" d="M 9.921875 42.050781 L 37.707031 42.050781 L 37.707031 44.035156 L 9.921875 44.035156 Z M 9.921875 42.050781 "/>
<path style=" stroke:none;fill-rule:nonzero;fill:url(#radial0);" d="M 37.707031 42.050781 L 41.675781 42.050781 L 41.675781 40.066406 L 37.707031 40.066406 Z M 37.707031 42.050781 "/>
<path style=" stroke:none;fill-rule:nonzero;fill:url(#radial1);" d="M 9.921875 42.050781 L 5.953125 42.050781 L 5.953125 44.035156 L 9.921875 44.035156 Z M 9.921875 42.050781 "/>
<path style=" stroke:none;fill-rule:nonzero;fill:url(#radial2);" d="M 9.921875 42.050781 L 5.953125 42.050781 L 5.953125 40.066406 L 9.921875 40.066406 Z M 9.921875 42.050781 "/>
<path style=" stroke:none;fill-rule:nonzero;fill:url(#radial3);" d="M 37.707031 42.050781 L 41.675781 42.050781 L 41.675781 44.035156 L 37.707031 44.035156 Z M 37.707031 42.050781 "/>
<path style=" stroke:none;fill-rule:nonzero;fill:url(#linear1);" d="M 7.9375 6.328125 L 39.691406 6.328125 C 40.789062 6.328125 41.675781 7.21875 41.675781 8.3125 L 41.675781 40.066406 C 41.675781 41.164062 40.789062 42.050781 39.691406 42.050781 L 7.9375 42.050781 C 6.84375 42.050781 5.953125 41.164062 5.953125 40.066406 L 5.953125 8.3125 C 5.953125 7.21875 6.84375 6.328125 7.9375 6.328125 Z M 7.9375 6.328125 "/>
<path style=" stroke:none;fill-rule:nonzero;fill:url(#linear2);" d="M 13.890625 6.328125 L 13.890625 18.234375 C 13.890625 19.335938 14.777344 20.21875 15.875 20.21875 L 35.722656 20.21875 C 36.820312 20.21875 37.707031 19.335938 37.707031 18.234375 L 37.707031 6.328125 Z M 29.769531 8.3125 L 33.738281 8.3125 C 34.289062 8.3125 34.730469 8.753906 34.730469 9.304688 L 34.730469 15.257812 C 34.730469 15.808594 34.289062 16.25 33.738281 16.25 L 29.769531 16.25 C 29.21875 16.25 28.777344 15.808594 28.777344 15.257812 L 28.777344 9.304688 C 28.777344 8.753906 29.21875 8.3125 29.769531 8.3125 Z M 29.769531 8.3125 "/>
<path style="fill-rule:nonzero;fill:url(#linear3);stroke-width:11.338583;stroke-linecap:round;stroke-linejoin:round;stroke:rgb(12.941177%,12.941177%,12.941177%);stroke-opacity:1;stroke-miterlimit:4;" d="M 439.958009 935.186334 C 395.710264 935.186334 359.965644 970.773489 359.965644 1015.178699 L 359.965644 1695.113804 L 1560.008589 1695.113804 L 1560.008589 1015.178699 C 1560.008589 970.773489 1524.263969 935.186334 1480.016224 935.186334 Z M 439.958009 935.186334 " transform="matrix(0.0248071,0,0,0.0248071,0,0)"/>
<path style="fill-rule:nonzero;fill:rgb(93.725491%,32.549021%,31.37255%);fill-opacity:1;stroke-width:3;stroke-linecap:round;stroke-linejoin:round;stroke:rgb(12.941177%,12.941177%,12.941177%);stroke-opacity:1;stroke-miterlimit:4;" d="M 95.240905 170.004901 L 412.752251 170.004901 L 412.752251 233.498837 L 95.240905 233.498837 Z M 95.240905 170.004901 " transform="matrix(0.093759,0,0,0.093759,0,20.158175)"/>
<path style=" stroke:none;fill-rule:nonzero;fill:rgb(0%,0%,0%);fill-opacity:0.235294;" d="M 7.9375 42.050781 C 6.839844 42.050781 5.953125 41.164062 5.953125 40.066406 L 5.953125 39.570312 C 5.953125 40.667969 6.839844 41.554688 7.9375 41.554688 L 39.691406 41.554688 C 40.789062 41.554688 41.675781 40.667969 41.675781 39.570312 L 41.675781 40.066406 C 41.675781 41.164062 40.789062 42.050781 39.691406 42.050781 Z M 7.9375 42.050781 "/>
<path style=" stroke:none;fill-rule:nonzero;fill:rgb(4.705882%,4.705882%,4.705882%);fill-opacity:0.313725;" d="M 29.769531 7.847656 C 29.21875 7.847656 28.777344 8.289062 28.777344 8.839844 L 28.777344 9.304688 C 28.777344 8.753906 29.21875 8.3125 29.769531 8.3125 L 33.738281 8.3125 C 34.289062 8.3125 34.730469 8.753906 34.730469 9.304688 L 34.730469 8.839844 C 34.730469 8.289062 34.289062 7.847656 33.738281 7.847656 Z M 13.890625 17.769531 L 13.890625 18.234375 C 13.890625 19.335938 14.777344 20.21875 15.875 20.21875 L 35.722656 20.21875 C 36.820312 20.21875 37.707031 19.335938 37.707031 18.234375 L 37.707031 17.769531 C 37.707031 18.867188 36.820312 19.753906 35.722656 19.753906 L 15.875 19.753906 C 14.777344 19.753906 13.890625 18.867188 13.890625 17.769531 Z M 13.890625 17.769531 "/>
<path style=" stroke:none;fill-rule:nonzero;fill:rgb(100%,100%,100%);fill-opacity:0.392157;" d="M 13.890625 6.328125 L 13.890625 6.824219 L 37.707031 6.824219 L 37.707031 6.328125 Z M 28.777344 15.257812 L 28.777344 15.753906 C 28.777344 16.304688 29.21875 16.746094 29.769531 16.746094 L 33.738281 16.746094 C 34.289062 16.746094 34.730469 16.304688 34.730469 15.753906 L 34.730469 15.257812 C 34.730469 15.808594 34.289062 16.25 33.738281 16.25 L 29.769531 16.25 C 29.21875 16.25 28.777344 15.808594 28.777344 15.257812 Z M 28.777344 15.257812 "/>
<path style=" stroke:none;fill-rule:nonzero;fill:rgb(12.941177%,12.941177%,12.941177%);fill-opacity:1;" d="M 13.890625 6.1875 C 13.8125 6.1875 13.75 6.25 13.75 6.328125 L 13.75 18.234375 C 13.75 19.410156 14.703125 20.359375 15.875 20.359375 L 35.722656 20.359375 C 36.898438 20.359375 37.847656 19.410156 37.847656 18.234375 L 37.847656 6.328125 C 37.847656 6.25 37.785156 6.1875 37.707031 6.1875 Z M 14.03125 6.46875 L 37.566406 6.46875 L 37.566406 18.234375 C 37.566406 19.261719 36.746094 20.078125 35.722656 20.078125 L 15.875 20.078125 C 14.851562 20.078125 14.03125 19.261719 14.03125 18.234375 Z M 29.769531 8.171875 C 29.144531 8.171875 28.636719 8.679688 28.636719 9.304688 L 28.636719 15.257812 C 28.636719 15.882812 29.144531 16.390625 29.769531 16.390625 L 33.738281 16.390625 C 34.363281 16.390625 34.871094 15.882812 34.871094 15.257812 L 34.871094 9.304688 C 34.871094 8.679688 34.363281 8.171875 33.738281 8.171875 Z M 29.769531 8.453125 L 33.738281 8.453125 C 34.210938 8.453125 34.589844 8.832031 34.589844 9.304688 L 34.589844 15.257812 C 34.589844 15.734375 34.210938 16.109375 33.738281 16.109375 L 29.769531 16.109375 C 29.292969 16.109375 28.917969 15.734375 28.917969 15.257812 L 28.917969 9.304688 C 28.917969 8.832031 29.292969 8.453125 29.769531 8.453125 Z M 29.769531 8.453125 "/>
<path style=" stroke:none;fill-rule:nonzero;fill:rgb(100%,100%,100%);fill-opacity:0.313725;" d="M 7.9375 6.328125 C 6.839844 6.328125 5.953125 7.214844 5.953125 8.3125 L 5.953125 8.808594 C 5.953125 7.710938 6.839844 6.824219 7.9375 6.824219 L 39.691406 6.824219 C 40.789062 6.824219 41.675781 7.710938 41.675781 8.808594 L 41.675781 8.3125 C 41.675781 7.214844 40.789062 6.328125 39.691406 6.328125 Z M 7.9375 6.328125 "/>
<path style=" stroke:none;fill-rule:nonzero;fill:rgb(12.941177%,12.941177%,12.941177%);fill-opacity:1;" d="M 7.9375 6.1875 C 6.761719 6.1875 5.8125 7.136719 5.8125 8.3125 L 5.8125 40.066406 C 5.8125 41.242188 6.761719 42.191406 7.9375 42.191406 L 39.691406 42.191406 C 40.867188 42.191406 41.816406 41.242188 41.816406 40.066406 L 41.816406 8.3125 C 41.816406 7.136719 40.867188 6.1875 39.691406 6.1875 Z M 7.9375 6.46875 L 39.691406 6.46875 C 40.714844 6.46875 41.535156 7.289062 41.535156 8.3125 L 41.535156 40.066406 C 41.535156 41.089844 40.714844 41.910156 39.691406 41.910156 L 7.9375 41.910156 C 6.914062 41.910156 6.09375 41.089844 6.09375 40.066406 L 6.09375 8.3125 C 6.09375 7.289062 6.914062 6.46875 7.9375 6.46875 Z M 7.9375 6.46875 "/>
</g>
</svg>
